src/topics/icons/cobalt.svg

<?xml version="1.0" encoding="UTF-8" standalone="no"?>
<svg width="256px" height="294px" viewBox="0 0 256 294" version="1.1" xmlns="http://www.w3.org/2000/svg" xmlns:xlink="http://www.w3.org/1999/xlink" preserveAspectRatio="xMidYMid">
    <g>
        <path d="M197.2435,224.2878 L206.5885,240.4698 C207.2505,241.6158 206.8575,243.0818 205.7115,243.7438 L200.8945,246.5258 C199.7685,247.1758 198.3275,246.7898 197.6765,245.6638 L188.3265,229.4708 C187.7105,228.4058 186.3905,228.0148 185.2795,228.5438 C175.7185,233.0968 165.2375,236.0288 154.1775,236.9408 C152.9465,237.0418 151.9915,238.0448 151.9915,239.2798 L151.9915,257.8978 C151.9915,259.2018 150.9345,260.2588 149.6305,260.2588 L144.0805,260.2588 C142.7525,260.2588 141.6755,259.1818 141.6755,257.8538 L141.6755,239.2778 C141.6755,238.0498 140.7245,237.0528 139.4995,236.9558 C128.4315,236.0758 117.9335,233.1848 108.3565,228.6608 C107.2265,228.1278 105.8875,228.5258 105.2625,229.6078 L96.0155,245.6258 C95.3525,246.7728 93.8855,247.1658 92.7385,246.5038 L87.9265,243.7248 C86.7985,243.0738 86.4115,241.6308 87.0625,240.5028 L96.3285,224.4528 C96.9525,223.3728 96.6265,222.0148 95.6005,221.3048 C86.6915,215.1418 78.9505,207.4158 72.7735,198.5168 C72.0715,197.5048 70.7305,197.1838 69.6635,197.7998 L53.6435,207.0488 C52.5035,207.7068 51.0455,207.3168 50.3865,206.1758 L47.6375,201.4148 C46.9655,200.2518 47.3645,198.7638 48.5275,198.0928 L64.4955,188.8738 C65.5625,188.2578 65.9545,186.9378 65.4255,185.8248 C60.8715,176.2398 57.9565,165.7278 57.0585,154.6408 C56.9585,153.4068 55.9535,152.4488 54.7155,152.4488 L36.2705,152.4488 C34.9425,152.4488 33.8665,151.3718 33.8665,150.0438 L33.8665,144.4878 C33.8665,143.1868 34.9205,142.1328 36.2205,142.1328 L54.6815,142.1328 C55.9385,142.1328 56.9585,141.1598 57.0605,139.9068 C57.9615,128.8388 60.8725,118.3438 65.4165,108.7728 C65.9495,107.6508 65.5545,106.3188 64.4785,105.6978 L48.5055,96.4738 C47.3545,95.8088 46.9605,94.3368 47.6255,93.1848 L50.3825,88.4098 C51.0435,87.2648 52.5065,86.8728 53.6515,87.5338 L69.6665,96.7828 C70.7305,97.3978 72.0695,97.0778 72.7695,96.0678 C78.9515,87.1608 86.6985,79.4288 95.6165,73.2628 C96.6335,72.5588 96.9575,71.2128 96.3385,70.1418 L87.0645,54.0788 C86.4125,52.9488 86.7995,51.5038 87.9295,50.8518 L92.7425,48.0728 C93.8875,47.4108 95.3515,47.8038 96.0135,48.9488 L105.2755,64.9928 C105.8935,66.0618 107.2165,66.4568 108.3335,65.9288 C117.9115,61.4008 128.4105,58.5068 139.4815,57.6248 C140.7165,57.5268 141.6755,56.5218 141.6755,55.2828 L141.6755,36.7488 C141.6755,35.4078 142.7635,34.3198 144.1055,34.3198 L149.6205,34.3198 C150.9295,34.3198 151.9915,35.3818 151.9915,36.6908 L151.9915,55.2988 C151.9915,56.5338 152.9465,57.5368 154.1775,57.6388 C165.2255,58.5498 175.6955,61.4748 185.2495,66.0208 C186.3775,66.5568 187.7185,66.1598 188.3425,65.0778 L197.6715,48.9248 C198.3255,47.7928 199.7725,47.4048 200.9045,48.0588 L205.7025,50.8288 C206.8535,51.4938 207.2475,52.9668 206.5825,54.1178 L197.2595,70.2638 C196.6365,71.3428 196.9595,72.6998 197.9825,73.4108 C202.5615,76.5928 206.8375,80.1798 210.7455,84.1308 C213.6625,87.0798 218.3035,87.4058 221.4845,84.7448 L253.3075,58.1268 C256.6095,55.3658 256.9205,50.3858 253.9845,47.2388 C225.4025,16.6028 183.8695,-1.7922 138.0955,0.8258 C68.6855,4.7948 5.6045,66.6778 0.4225,136.0078 C-6.0145,222.1298 61.9545,293.9998 146.7105,293.9998 C188.5295,293.9998 226.2485,276.4908 252.9705,248.4158 C256.4945,244.7138 256.0785,238.7698 252.1585,235.4908 L220.7795,209.2438 C217.9945,206.9148 213.9155,207.1828 211.3895,209.7898 C207.3005,214.0098 202.7985,217.8238 197.9575,221.1858 C196.9485,221.8858 196.6295,223.2248 197.2435,224.2878" fill="#248BD2"></path>
        <path d="M146.809,161.1017 C138.943,161.1017 132.566,154.7247 132.566,146.8587 C132.566,138.9927 138.943,132.6157 146.809,132.6157 C154.675,132.6157 161.052,138.9927 161.052,146.8587 C161.052,154.7247 154.675,161.1017 146.809,161.1017 M149.41,103.3797 C129.336,102.2127 112.007,114.6537 105.752,132.3307 C105.366,133.4217 105.852,134.6397 106.855,135.2177 L123.467,144.8097 C125.045,145.7197 125.045,147.9967 123.467,148.9077 L106.852,158.5007 C105.851,159.0787 105.366,160.2947 105.751,161.3847 C111.733,178.2947 127.85,190.4127 146.809,190.4127 C171.564,190.4127 191.496,169.7607 190.314,144.7457 C189.325,123.8267 170.317,104.5957 149.41,103.3797" fill="#423B3D"></path>
    </g>
</svg>

<svg height="294" preserveAspectRatio="xMidYMid" viewBox="0 0 256 294" width="256" xmlns="http://www.w3.org/2000/svg"><path d="m197.2435 224.2878 9.345 16.182c.662 1.146.269 2.612-.877 3.274l-4.817 2.782c-1.126.65-2.567.264-3.218-.862l-9.35-16.193c-.616-1.065-1.936-1.456-3.047-.927-9.561 4.553-20.042 7.485-31.102 8.397-1.231.101-2.186 1.104-2.186 2.339v18.618c0 1.304-1.057 2.361-2.361 2.361h-5.55c-1.328 0-2.405-1.077-2.405-2.405v-18.576c0-1.228-.951-2.225-2.176-2.322-11.068-.88-21.566-3.771-31.143-8.295-1.13-.533-2.469-.135-3.094.947l-9.247 16.018c-.663 1.147-2.13 1.54-3.277.878l-4.812-2.779c-1.128-.651-1.515-2.094-.864-3.222l9.266-16.05c.624-1.08.298-2.438-.728-3.148-8.909-6.163-16.65-13.889-22.827-22.788-.702-1.012-2.043-1.333-3.11-.717l-16.02 9.249c-1.14.658-2.598.268-3.257-.873l-2.749-4.761c-.672-1.163-.273-2.651.89-3.322l15.968-9.219c1.067-.616 1.459-1.936.93-3.049-4.554-9.585-7.469-20.097-8.367-31.184-.1-1.234-1.105-2.192-2.343-2.192h-18.445c-1.328 0-2.404-1.077-2.404-2.405v-5.556c0-1.301 1.054-2.355 2.354-2.355h18.461c1.257 0 2.277-.973 2.379-2.226.901-11.068 3.812-21.563 8.356-31.134.533-1.122.138-2.454-.938-3.075l-15.973-9.224c-1.151-.665-1.545-2.137-.88-3.289l2.757-4.775c.661-1.145 2.124-1.537 3.269-.876l16.015 9.249c1.064.615 2.403.295 3.103-.715 6.182-8.907 13.929-16.639 22.847-22.805 1.017-.704 1.341-2.05.722-3.121l-9.274-16.063c-.652-1.13-.265-2.575.865-3.227l4.813-2.779c1.145-.662 2.609-.269 3.271.876l9.262 16.044c.618 1.069 1.941 1.464 3.058.936 9.578-4.528 20.077-7.422 31.148-8.304 1.235-.098 2.194-1.103 2.194-2.342v-18.534c0-1.341 1.088-2.429 2.43-2.429h5.515c1.309 0 2.371 1.062 2.371 2.371v18.608c0 1.235.955 2.238 2.186 2.34 11.048.911 21.518 3.836 31.072 8.382 1.128.536 2.469.139 3.093-.943l9.329-16.153c.654-1.132 2.101-1.52 3.233-.866l4.798 2.77c1.151.665 1.545 2.138.88 3.289l-9.323 16.146c-.623 1.079-.3 2.436.723 3.147 4.579 3.182 8.855 6.769 12.763 10.72 2.917 2.949 7.558 3.275 10.739.614l31.823-26.618c3.302-2.761 3.613-7.741.677-10.888-28.582-30.636-70.115-49.031-115.889-46.413-69.41 3.969-132.491 65.852-137.673 135.182-6.437 86.122 61.532 157.992 146.288 157.992 41.819 0 79.538-17.509 106.26-45.584 3.524-3.702 3.108-9.646-.812-12.925l-31.379-26.247c-2.785-2.329-6.864-2.061-9.39.546-4.089 4.22-8.591 8.034-13.432 11.396-1.009.7-1.328 2.039-.714 3.102" fill="#248bd2"/><path d="m146.809 161.1017c-7.866 0-14.243-6.377-14.243-14.243s6.377-14.243 14.243-14.243 14.243 6.377 14.243 14.243-6.377 14.243-14.243 14.243m2.601-57.722c-20.074-1.167-37.403 11.274-43.658 28.951-.386 1.091.1 2.309 1.103 2.887l16.612 9.592c1.578.91 1.578 3.187 0 4.098l-16.615 9.593c-1.001.578-1.486 1.794-1.101 2.884 5.982 16.91 22.099 29.028 41.058 29.028 24.755 0 44.687-20.652 43.505-45.667-.989-20.919-19.997-40.15-40.904-41.366" fill="#423b3d"/></svg>
